X:464
T: Hong mudan kaizai baihuayuan
N: C2082
O: China, Qinghai Huzhu
S: I, 239]
N: Tuzu
R: Shange, Tuzuling]
M: 3/8
L: 1/16
K: Bb
b2 | f2g2f2 | d2f2fg | fgbcd2 | c6- | c4
dfg | g2f3g | fgbcd2 | b6- | b4z2
d2f2gb | fgbcdf | g2f3g | fgbcd2 | b2g4 | f6- | f4

